public/svg/groups/all.svg

<svg xmlns="http://www.w3.org/2000/svg" viewBox="0 0 26 26"><path d="M8 3c-.6 0-1 .4-1 1v3H4c-.6 0-1 .4-1 1v2c0 .6.4 1 1 1h3v4H4c-.6 0-1 .4-1 1v2c0 .6.4 1 1 1h3v3c0 .6.4 1 1 1h2c.6 0 1-.4 1-1v-3h4v3c0 .6.4 1 1 1h2c.6 0 1-.4 1-1v-3h3c.6 0 1-.4 1-1v-2c0-.6-.4-1-1-1h-3v-4h3c.6 0 1-.4 1-1V8c0-.6-.4-1-1-1h-3V4c0-.6-.4-1-1-1h-2c-.6 0-1 .4-1 1v3h-4V4c0-.6-.4-1-1-1H8zm3 8h4v4h-4v-4z"/></svg>

<svg xmlns="http://www.w3.org/2000/svg" viewBox="0 0 26 26" enable-background="new 0 0 26 26">
  <path d="M 8 3 C 7.4 3 7 3.4 7 4 L 7 7 L 4 7 C 3.4 7 3 7.4 3 8 L 3 10 C 3 10.6 3.4 11 4 11 L 7 11 L 7 15 L 4 15 C 3.4 15 3 15.4 3 16 L 3 18 C 3 18.6 3.4 19 4 19 L 7 19 L 7 22 C 7 22.6 7.4 23 8 23 L 10 23 C 10.6 23 11 22.6 11 22 L 11 19 L 15 19 L 15 22 C 15 22.6 15.4 23 16 23 L 18 23 C 18.6 23 19 22.6 19 22 L 19 19 L 22 19 C 22.6 19 23 18.6 23 18 L 23 16 C 23 15.4 22.6 15 22 15 L 19 15 L 19 11 L 22 11 C 22.6 11 23 10.6 23 10 L 23 8 C 23 7.4 22.6 7 22 7 L 19 7 L 19 4 C 19 3.4 18.6 3 18 3 L 16 3 C 15.4 3 15 3.4 15 4 L 15 7 L 11 7 L 11 4 C 11 3.4 10.6 3 10 3 L 8 3 z M 11 11 L 15 11 L 15 15 L 11 15 L 11 11 z"></path>
</svg>
